X:1
T:Songs that Won the War
T:Songs from WWI Medley Daily Express Community Song Book 3
%%score 1 2 3
L:1/8
M:4/4
K:F
V:1 treble nm="Flute" snm="Fl."
V:2 treble transpose=-2 nm="B♭ Clarinet" snm="B♭ Cl."
V:3 treble transpose=-2 nm="B♭ Clarinet" snm="B♭ Cl."
V:1
"^A" A3 B c2 A2 | A4 G4 | F3 G A2 F2 | F4 E4 | D3 E F2 D2 | C2 F2 A2 c2 | A4 G4 | G8 | A3 B c2 A2 | %9
 A4 G4 | F3 G A2 F2 | F4 E4 | D3 E F2 D2 | C2 F2 A2 c>B | A4 G4 | F6 z2 |:"^B" c2 ^c2 (3GBe (3dBA | %17
 d2 c2 (3FAe (3dBA | c2 =B2 _B2 e2 | e2 _e>=e c2 c>c | c2 F2 E2 c2 | d4 B3 z | F>F (3FFF F2 F2 |1 %23
 c2 c>c (3fed (3d_dc :|2 c>c c>c f2 (3:2:2c2 d ||[M:6/8]"^C" e3 b3- | b3 a2 g | d3 e3- | e3 d2 e | %29
 f3 c'3- | c'3 =b2 d' | c'6- | c'2 z c'2 ^c' | d'3 a3- | a2 a b2 a | a3 d3- | d3 e2 f | a3 g3 | %38
 d'3 a3 | g6- | g2 z c2 d | e3 b3- | b3 a2 g | d3 e3- | e3 d2 e | f3 c'3 | =b3 d'3 | c'6- | %48
 c'2 z c'2 ^c' | d'2 c' d'2 c' | a3 b2 a | a2 g a2 g | d3 f2 a | c'6- | c'2 z c'2 a | f6- | f2 z4 | %57
"^D" A3- A2 F | A6 | E2 E E2 E | Bc^c d3 | D2 E E2 ^D | E2 ^D E2 E | A2 F E2 D | c=Bc d2 c | %65
 ^C3 D3 | E6 | D2 D D2 D | D6 | F3 F3 | F3 F3 | E2 E E2 E | E3 B2 C | A3- A2 C | A6 | E2 E E2 E | %76
 B2 ^c d3 | D2 E E2 ^D | E2 ^D E2 E | A2 F E2 D | C3- C2 F | FFF F2 F | D2 C F2 F | C2 ^F G2 A | %84
 D6 | D3 ^F3 | G2 G E2 E | C6- | C3 z z2 |"^E" A2 z _E2 z | EEE E2 E | F3 EFE | D2 _D C3 | %93
 E2 E E2 E | E3 E^DE | F2 F E2 D | EDE C2 c | fac fac | z2 a a2 a | gbd gbd | g2 z a2 g | fdd def | %102
 a2 =b c'2 d' | e'2 c' d'2 =b | c'3- c'2 z | c2 z c2 z | cde d2 c | A6- | A2 z A^GA | c2 G G2 G | %110
 G3 G^FG | d2 A A2 A | A3- A2 z | c2 z =B2 z | _B2 z A2 z | GAG ^F2 G | AG^F G3 | e2 z d2 z | %118
 BcB A2 G | F6- |[M:4/4] F6 C2 |:"^F"!p! c!f!a- a4 c2 | db- b4 a>g | c'2 b>g c'2 b>g | af- f4 f>e | %125
 d2 e2 f2 g2 | a6 z2 | g4 g4 | (3fgf e>f g2 c2 | ca- a4 c2 | cb- b6 | e>d e>f g>e d>c | da- a4 c2 | %133
 f2 g2 a2 ^fd | g2 a2 b2 g2 | c'2 b>g c'2 c'2 |1 af- f2 z2 c2 :|2 af- f2 f'2 z2 |] %138
V:2
[K:G] G3 A B2 G2 | F4 D4 | E3 F G2 E2 | ^D4 D4 | C3 D E2 A,2 | B,2 D2 G2 B2 | ^C4 G4 | F8 | %8
 G3 A B2 G2 | F4 D4 | E3 F G2 E2 | ^D4 D4 | C3 D E2 A,2 | B,2 D2 G2 B2 | G4 D4 | D6 z D |: %16
 B>^A B>c =A4 | A>^G A>B =G3 z | G2 F>E (3FAe d2 | (3AAA ^G>A B>=G D>D | d>d ^c>c (3=ccc B>B | %21
 B>A c>A E3 z | B>B (3BAB c2 B2 |1 D>D E>D G2 z D :|2 D>D E>D G2 z2 ||[M:6/8] C3 F3- | F3 F2 F | %27
 C3 C3- | C3 C2 D | B,3 B3- | B3 ^A2 A | B2 G G2 A | B2 B G2 B | B2 B ^G2 E | ^G2 E G2 E | %35
 E2 =G ^C2 C | ^C2 C A,2 C | G2 ^C E2 C | G3 ^C3 | F2 D DDD | D2 D D2 E | D3 F3- | F3 F2 D | %43
 C3 C3- | C3 C2 C | B,3 B3 | ^A3 A3 | B2 B B2 B | B2 B G2 B | B2 B B2 B | ^G3 G2 G | =G2 G G2 G | %52
 ^C3 C2 C | D2 F G2 ^G | A2 z A2 F | D2 d ^cde | dBG D2 B | d3- d2 B | d6 | c2 B A2 B | c6 | %61
 c2 B A2 ^G | A2 ^G A2 ^A | B6- | B6 | B3 B3 | B6 | G2 F G2 A | B6 | A3 ^A3 | B3 ^c3 | e2 d c2 A | %72
 F3- F2 B | d3- d2 B | d6 | c2 B A2 B | c6 | c2 B A2 ^G | A2 ^G A2 ^A | B6- | B3- B2 B | %81
 BBB ^A2 B | c2 B ^A2 B | e6 | A6 | d3 d3 | d2 c A2 B | G6- | G3 z2 z | G,2 z ^G,2 z | %90
 A,2 C D2 A, | G,2 C D2 B, | G,2 B, G,3 | A,2 C D2 C | A,2 C D3 | G2 B, D2 B, | G,2 B, D2 d | %97
 gbd gbd | g2 d G2 ^g | ac'e ac'e | a2 z f3 | e2 B e2 B | e2 ^A B2 _B | A2 z A2 z | d2 =c B2 A | %105
 G,2 z ^G,2 z | A,2 z D3 | G,2 B, D2 B, | G,3 ^G,3 | A,2 C D2 C | A,2 C D3 | G,2 B, D2 B, | %112
 D2 D DGB | B,2 z _B,2 z | A,2 z G,2 z | E2 A, A,2 E | E2 A, A,2 E | D2 z A,2 z | E2 _E D2 C | %119
 B,^CD- DED |[M:4/4] G4 z4 |:!p! B,!f!G- G4 B,2 | EA- A4 G2 | c2 F2 c2 F2 | GD- D4 D2 | %125
 C2 C2 C2 D2 | B,2 F2 E2 D2 | D2 F2 C2 F2 | ^C2 C2 =C2 C2 | B,B,- B,4 D2 | CE- E6 | C2 C2 C2 C2 | %132
 B,B,- B,6 | B,2 C2 D2 B,2 | C2 D2 E2 G2 | F2 F2 F2 F2 |1 GD (3Bc^c d2 C2 :|2 GD- D2 d2 z2 |] %138
V:3
[K:G] G,2 B,2 G2 D2 | D4 C4 | B,3 B, E2 B,2 | B,4 A,4 | G,3 G, B,2 C2 | G,2 B,2 D2 G2 | A,4 ^C4 | %7
 C8 | G,2 B,2 G2 D2 | D4 C4 | B,3 B, E2 B,2 | B,4 A,4 | G,3 G, B,2 C2 | G,2 B,2 D2 G2 | A,4 C4 | %15
 B,6 z2 |: G,2 F,2 E,4 | E,2 F,2 G,3 z | B,2 _B,2 A,2 D2 | D2 B,>C G,2 F,>F, | B,2 _B,2 A,2 G,2 | %21
 C4 A,2 z2 | D>D (3DCD E2 D2 |1 F,2 G,>F, (3G,FE (3E_ED :|2 B,6 (3:2:2D2 F ||[M:6/8] A,2 A D2 A | %26
 A,2 F D2 F | A,2 F D2 F | A,2 F D2 A, | G,2 D G,2 D | G,2 D G,2 ^A | G2 D E2 F | G2 A B2 A | %33
 ^G2 E E2 D | E2 D E2 D | A,2 E A,2 G | A,2 E ^C2 E | E3 A,3 | A,3 A,3 | D2 D DDD | D2 D D2 E | %41
 A,2 F D2 F | A,2 F D2 F | A,2 F, D2 F | A,2 F D2 F | G,2 G G,2 G | G,2 D E2 F | G,2 D E2 F, | %48
 G,2 A, B,2 A, | ^G,2 E E2 E | E2 E E2 E | A,2 A, A,2 A, | A,2 A, E2 E | D2 A, ^A,2 B, | %54
 D2 z D2 z | G2 z G2 z | GDB, G,2 z | G2 D G,2 D | G,2 D G2 D | A,2 D A,2 D | A,2 D A,2 D | %61
 A,2 D A,2 D | A,2 D A,2 D | G,2 D G,2 D | G,2 D G,2 D | B,3 ^C3 | ^D3 B,3 | E2 ^D E2 F | G6 | %69
 ^C3 C3 | D3 E3 | C2 C D2 D | D3 D2 z | G2 D G,2 D | G,2 D G,2 D | A,2 D A,2 D | A,2 D A,2 D | %77
 A,2 D A,2 D | D2 A, D2 A, | G,2 D G,2 A, | B,3- B,2 z | G2 G ^C2 D | E2 D ^C2 D | E2 E F2 ^G | %84
 C6 | D3 ^E3 | D3 D3 | G,3 B,3 | A,3 D3 | d2 z d2 z | def e2 d | B6- | B2 z B^AB | d2 =A A2 A | %94
 A3 A^GA | e2 B B2 B | B3- B2 d | gbd gbd | g3- g2 e | ac'e ac'e | a2 z ^d3 | e2 e e2 e | %102
 g2 g f2 g | d'2 f g2 z | d2 a b2 c' | B2 z =F2 z | F3 ^A3 | G2 F EFE | D3 ^E3 | F2 F F2 F | %110
 F3 F^EF | G2 F E2 _E | D2 D DGB | G2 z G2 z | F2 z G2 z | ^C2 C C2 C | ^C2 C C3 | A2 z A2 z | %118
 A,2 A, D3 | B,^CD- DED |[M:4/4] G,4 z4 |:!p! G,2!f! B,>^A, B,2 G,2 | A,2 A,>^G, A,2 B,>C | %123
 A,2 C2 D2 C2 | G,2 G,>F, G,2 B,2 | C2 D2 E2 F2 | G,8 | A,4 ^D4 | A,4 D2 C2 | G,2 B,>^A, B,2 G,2 | %130
 A,2 A,>^G, A,2 E,2 | A,2 D2 A,2 D2 | G,2 D>C D2 G,2 | G,2 F,2 G,2 E,2 | A,2 ^G,2 A,2 C2 | %135
 A,2 D2 A,2 D2 |1 G,2 (3B,C^C D2 D2 :|2 G,4 B2 z2 |] %138

